!!!COM: Scriabin, Alexander
!!!OTL@@FR: Prélude en fa mineur
!!!OTL@@EN: Prelude in F Minor
!!!OPR@@FR: 4 Préludes
!!!OPR@@EN: 4 Preludes
!!!OPS: 39
!!!ONM: 4
!!!ODT: 1903
!!!AGN: Prelude
**kern	**kern	**dynam
*staff2	*staff1	*staff1/2
*Ipiano	*Ipiano	*
*clefF4	*clefG2	*
*k[b-e-a-d-]	*k[b-e-a-d-]	*
*f:	*f:	*
*M3/4	*M3/4	*
8.FFF-XL 8.FF-X	8.A-L 8.c 8.a-	f <
16EEE-Jk 16EE-	16GJk 16c 16g	[
=1	=1	=1
[2AAA- [2AA-	8G-X [8c 8g-X	>
.	[4.F 4.c_ [4.f	]
8AAA-L] 8AA-]	8FL] 8c] 8f]	.
8DDD-J 8DD-	8F-XJ 8A- 8c 8f-X	.
=2	=2	=2
8qDDD- 8qDD-	.	.
4.AA- 4.F-X 4.A-	4.c 4.f-X 4.cc	.
[8DDD- [8DD-	[8F-X [8A- [8B- [8f-	.
8.DDD-L] 8.DD-]	8.F-L] 8.A-] 8.B-] 8.f-]	.
16CCCJk 16CC	16E-Jk 16A- 16c 16e-	< [
*	*clefF4	*
=3	=3	=3
[2EEEn [2EEn	4Dn 4G#X 4dn	>
.	[4C#X [4G# [4c#X	]
8EEEL] 8EE]	8C#L] 8G#] 8c#]	.
8AAAAnJ 8AAAn	8CnJ 8En 8G# 8cn	.
=4	=4	=4
8qAAAAn 8qAAAn	.	.
4.EEn 4.C 4.En	4.G#X 4.c 4.g#X	.
[8AAAA [8AAA	[8C [8En [8F#X [8c	.
8.AAAAL] 8.AAA]	8.CL] 8.E] 8.F#] 8.c]	.
16GGG#XJk	16BBnJk 16E 16G# 16Bn	.
!!LO:LB:g=original
=5	=5	=5
2.CCC 2.CC	4BBn 4En 4Bn	.
.	[4BB-X [4E [4B-X	.
.	8BB-L] 8E] 8B-]	.
.	8EEnJ 8E	.
=6	=6	=6
4.CCC#X 4.CC#X	4.AAn 4.En 4.An	.
[8CCC# [8CC#	[8AA [8E [8A	.
8.CCC#L] 8.CC#]	8.AAL] 8.E] 8.A]	.
16DDDnJk 16DDn	16BB-Jk 16F-X 16A-X	.
=7	=7	=7
4DDDn 4DDn	4BB- 4F-X 4A-	.
4EEE- 4EE-	4BB- 4E- 4G	.
4BBBB- 4BBB-	4AA- 4Dn 4F-X	.
=8	=8	=8
2EEE- 2EE-	2GG 2BB- 2E-	.
4r	8.f-XL	.
.	16e-Jk	.
=9	=9	=9
*	*^	*
2.GGG-X [2.GG-X	2F-X	4B- 4dn	.
.	.	4B-- 4d-X	.
!	! The print edition has an arrow pointing to the bass clef	!	!
.	8.F-X<L	4A- 4c/	.
.	16E-<Jk	.	.
=10	=10	=10	=10
*^	*	*	*
4GG-]	4E--	4c	2A- 2a-	.
4FF	4D-	4d-	.	.
[4EEn [4C	8.CL	[4e--	4r	.
.	16A-Jk	.	.	.
*	*	*v	*v	*
!!LO:LB:g=original
=11	=11	=11	=11
4EE] 4C]	2A-	4e--]	.
4FF 4D-	.	4d-	.
*	*	*^	*
[4EEn [4E--	4r	[4A- [4c	8.cL	.
.	.	.	16a-Jk	.
*v	*v	*	*	*
=12	=12	=12	=12
4EE] 4E--]	4c]	2A-] 2a-	.
4FF 4D-	4d-	.	.
4r	4r	8.e--L	.
.	.	16d-Jk	.
=13	=13	=13	=13
2.FFF-X [2.FF-X	2E--	4A- 4c	.
.	.	4A-- 4c-X	.
!	! The print edition has an arrow pointing to the bass clef	!	!
.	8.E--X<L	4G-X 4B-/	.
.	16D-<Jk	.	.
=14	=14	=14	=14
*^	*	*	*
4FF-]	4D--	4B-	2G-X 2g-X	.
4EE-	4C-X	4c-X	.	.
[4EE-- [4C--	4r	[4F-X [4A-	8.A-L	.
.	.	.	16f-XJk	.
*v	*v	*	*	*
=15	=15	=15	=15
4EE--] 4C--]	4A-]	2F-] 2f-X	.
4DD- 4BB--	4B--	.	.
*	*v	*v	*
4EEE- 4EE-X	4D- 4E- 4G	.
=16	=16	=16
2AAA- 2AA-	2C 2E- 2A-	.
4r	4r	.
==	==	==
*-	*-	*-
!!!system-decoration: {(*)}
!!!filter: flipper -a
!!!RDF**kern: < = below
!!!ENC: Bryan Jacob Bell
!!!END: November 2021 to April 2022
!!!PED: Konstantin Igumnov and Yakov Milstein
!!!PTL: A.N. Skryabin: Polnoe sobranie sochinenii dlia fortepiano (Muzgiz)
